static/svgs/conference/index/hashtag-icon-solid.svg

<?xml version="1.0" encoding="UTF-8"?>
<svg width="20px" height="20px" viewBox="0 0 20 20" version="1.1" xmlns="http://www.w3.org/2000/svg" xmlns:xlink="http://www.w3.org/1999/xlink">
    <!-- Generator: Sketch 53 (72520) - https://sketchapp.com -->
    <title>Conference/Hashtag</title>
    <desc>Created with Sketch.</desc>
    <defs>
        <path d="M8.3009431,11.5 L11.2704855,11.5 L11.6990569,8.5 L8.72951453,8.5 L8.3009431,11.5 Z M7.87237167,14.5 L7.48492424,17.212132 C7.36776695,18.032233 6.60796898,18.6020815 5.78786797,18.4849242 C4.96776695,18.367767 4.39791847,17.607969 4.51507576,16.787868 L4.84191404,14.5 L3,14.5 C2.17157288,14.5 1.5,13.8284271 1.5,13 C1.5,12.1715729 2.17157288,11.5 3,11.5 L5.27048547,11.5 L5.6990569,8.5 L3,8.5 C2.17157288,8.5 1.5,7.82842712 1.5,7 C1.5,6.17157288 2.17157288,5.5 3,5.5 L6.12762833,5.5 L6.51507576,2.78786797 C6.63223305,1.96776695 7.39203102,1.39791847 8.21213203,1.51507576 C9.03223305,1.63223305 9.60208153,2.39203102 9.48492424,3.21213203 L9.15808596,5.5 L12.1276283,5.5 L12.5150758,2.78786797 C12.632233,1.96776695 13.392031,1.39791847 14.212132,1.51507576 C15.032233,1.63223305 15.6020815,2.39203102 15.4849242,3.21213203 L15.158086,5.5 L17,5.5 C17.8284271,5.5 18.5,6.17157288 18.5,7 C18.5,7.82842712 17.8284271,8.5 17,8.5 L14.7295145,8.5 L14.3009431,11.5 L17,11.5 C17.8284271,11.5 18.5,12.1715729 18.5,13 C18.5,13.8284271 17.8284271,14.5 17,14.5 L13.8723717,14.5 L13.4849242,17.212132 C13.367767,18.032233 12.607969,18.6020815 11.787868,18.4849242 C10.967767,18.367767 10.3979185,17.607969 10.5150758,16.787868 L10.841914,14.5 L7.87237167,14.5 Z" id="path-1"></path>
    </defs>
    <g id="Conference/Hashtag" stroke="none" stroke-width="1" fill="none" fill-rule="evenodd">
        <mask id="mask-2" fill="white">
            <use xlink:href="#path-1"></use>
        </mask>
        <use id="Hashtag" fill="#575E75" fill-rule="nonzero" xlink:href="#path-1"></use>
        <g id="Blue/1_Blue" mask="url(#mask-2)" fill="#4D97FF">
            <rect id="Primary-Blue" x="0" y="0" width="20" height="20"></rect>
        </g>
    </g>
</svg>

<svg width="20" height="20" xmlns="http://www.w3.org/2000/svg" xmlns:xlink="http://www.w3.org/1999/xlink"><defs><path d="M8.3 11.5h2.97l.43-3H8.73l-.43 3zm-.428 3l-.387 2.712a1.5 1.5 0 0 1-2.97-.424l.327-2.288H3a1.5 1.5 0 0 1 0-3h2.27l.43-3H3a1.5 1.5 0 0 1 0-3h3.128l.387-2.712a1.5 1.5 0 1 1 2.97.424L9.158 5.5h2.97l.387-2.712a1.5 1.5 0 1 1 2.97.424L15.158 5.5H17a1.5 1.5 0 0 1 0 3h-2.27l-.43 3H17a1.5 1.5 0 0 1 0 3h-3.128l-.387 2.712a1.5 1.5 0 1 1-2.97-.424l.327-2.288h-2.97z" id="a"/></defs><g fill="none" fill-rule="evenodd"><mask id="b" fill="#fff"><use xlink:href="#a"/></mask><use fill="#575E75" fill-rule="nonzero" xlink:href="#a"/><g mask="url(#b)" fill="#4D97FF"><path d="M0 0h20v20H0z"/></g></g></svg>
